X:8
T:John Alex Francis MacLellan
R:pipe reel
C:Jerry Holland
O:20th Century Cape Breton
S:Tune of the Month, September 1998
D:Fiddler's Choice, Odyssey Records,1999
A:<http://www.capebretonet.com/Music/Holland>
N:Contacts ...
N:Bookings, Mechanicals etc.
N:..... jerry@cranfordpub.com
N:Tune books, related recordings
N:..... Cranford Publications <http://www.cranfordpub.com>
B:Previously Unpublished.
H:Copyrights - Publisher: Fiddlesticks Music (SOCAN).
Z:This abc transcription is for personal use only
Z:provided this notice remains attached.
Z:Used by permission of the composer and publisher.
Z:Paul Stewart Cranford 
Q:333
L:1/8
M:C|
K:Amix
"key A: mixolydian"g|e2 dg eAAB|dedB dGGg|e2 ed egab|gedB eAAB|!
e2 ed eAAB|dedB GABG|A/A/A BA GABd|gedg eAA:|!
|:B|d2 dB dGGg|eged eAAB|d2 dB degb|egdg BAAB|!
d2 dB dGGg|eged egab|g2 eB degb|e2dB eAA:|]!
